X:5
T:Vals fran Hoerken (Buffalo Gap 88)
R:vals
Z:2000 Brian Wilson <baab@mediaone.net>
Z:from Buffalo Gap 88 videotape
M:3/4
L:1/8
K:D
A2 \
|: d2 c2 d2 \
| A4 eg \
| ~f2 d2 d2 \
| e4 ef \
| ~g2 eg eg \
| ~f2 df df \
| ~e2 ce ce \
|[1 d4 A2 :|[2 d4 d2 |
P:B
|: {d}e2 ce ce \
| A2 ce a2 \
| ~f2 df df \
| G2 Bd g2 \
| ~g2 eg eg \
| ~f2 df df \
| ~e2 ce ce \
|[1 d4 d2 :|[2 d4 A2 |]
